X: 8859
T: Culfadda, The
R: reel
M: 4/4
K: Fmajor
AdcA G2AG|FDGF DGFD|CA,~A,2 CDFG|AF~F2 GABG|
AdcA G3G|FDGF DGFD|CA,~A, CDFG|AFGE ~F3G|
AdcA GcAG|FDGF DGFD|CA,~A,2, CDFG|AF~F2 GABG|
AdcA G3G|FDGF DGFD|CA,~A,2, CDFG|AFGE ~F3A||
c2cA BAGA|F2AF GFDF|CF~F2 CFAF|BAGF DGGA|
~B3d ~c3c|dcde fcAF|CF~F2 CFAd|cAGA F3A|
c2cA BAGA|F2AF GFDF|CF~F2 CFAF|BAGF DGG2|
A3c dcAc|f2af dfcB|AF~F2 CFAd|cAGA F~F2G||

